!!!COA:	Josquin des Prez
!!!CDT:	~1450-1521/08/27
!!!OTL:	Si jeusse Marion
!!!AGN:	Chanson
!!!SCT:	NJE 27.35
!!!SCA:	New Josquin Edition 27.35
!!!voices:	3
**kern	**kern	**kern
*staff3	*staff2	*staff1
*Ivox	*Ivox	*Ivox
*I"Bassus	*I"Tenor	*I"Superius
*I'B	*I'T	*I'S
*clefF4	*clefGv2	*clefGv2
*k[b-]	*k[b-]	*k[b-]
*M2/1	*M2/1	*M2/1
*met(C|)	*met(C|)	*met(C|)
=1-	=1-	=1-
0r	0r	1A
.	.	2A/
.	.	2A/
=2	=2	=2
0r	0r	1.c
.	.	2c\
=3	=3	=3
1D	0r	1d
2D\	.	[1f
2D\	.	.
=4	=4	=4
1.F	0r	2f\]
.	.	4e\
.	.	4d\
.	.	2c\
2F\	.	[2d\
=5	=5	=5
2G\	0r	2d\]
1B-	.	4G/
.	.	4A/
.	.	4B-\
.	.	4c\
4A\	.	4d\
4G\	.	4e\
=6	=6	=6
2A\	1A	2.f\
4D\	.	.
4E\	.	4e\
4F\	2A/	2d\
4G\	.	.
[2A\	2A/	[2c\
=7	=7	=7
2A\]	1.c	2c\]
4G\	.	4B-\
4F\	.	4A/
1E	.	1G
.	2c\	.
=8	=8	=8
2D\	0d	2r
1G	.	1B-
4F\	.	4A/
4E\	.	4G/
=9	=9	=9
0D	1.f	1A
.	.	1B-
.	4e\	.
.	4d\	.
=10	=10	=10
0C	0e	2.c\
.	.	4B-\
.	.	2.G/
.	.	4A/
=11	=11	=11
2r	1r	4B-\
.	.	4c\
2G\	.	1B-
2G\	2r	.
2G\	2d\	4A/
.	.	4G/
=12	=12	=12
2F\	2d\	2A/
4E\	2d\	2F/
4D\	.	.
2E\	2c\	2G/
2E\	4B-\	2G/
.	4A/	.
=13	=13	=13
2D\	1B-	1d
2G\	.	.
2G\	1B-	2r
2G\	.	2d\
=14	=14	=14
2F\	1A	2d\
4E\	.	2d\
4D\	.	.
2.E\	1r	2c\
.	.	4B-\
4F\	.	4A/
=15	=15	=15
2.G\	2r	2B-\
.	2d\	2B-\
4F\	.	.
2.D\	2d\	1A
.	2d\	.
4E\	.	.
=16	=16	=16
4F\	2c\	1r
4G\	.	.
4A\	4B-\	.
4F\	4A/	.
1G	2B-\	1d
.	2B-\	.
=17	=17	=17
1D	0A	2d\
.	.	2d\
2r	.	[1f
2D\	.	.
=18	=18	=18
2D\	2r	2f\]
2D\	2A/	2g\
[1F	2A/	[1a
.	2A/	.
=19	=19	=19
2F\]	1.c	2a\]
2G\	.	4g\
.	.	4f\
1A	.	2.e\
.	2c\	.
.	.	4f\
=20	=20	=20
1G	0d	1g
[1B-	.	2.f\
.	.	4e\
=21	=21	=21
2B-\]	1.f	2d\
4A\	.	4c\
4G\	.	4B-\
1A	.	[1c
.	4e\	.
.	4d\	.
=22	=22	=22
2r	1e	2c\]
2G\	.	2B-\
2F\	2r	2A/
4E\	2d\	4G/
4D\	.	4F/
=23	=23	=23
2E\	2c\	2G/
2E\	4B-\	1g
.	4A/	.
[1D	2B-\	.
.	2B-\	4f\
.	.	4e\
=24	=24	=24
1D]	2A/	1f
.	2d\	.
2r	2c\	2e\
2G\	[2B-\	[2d\
=25	=25	=25
2F\	4B-\]	2d\]
.	4A/	.
4E\	1A	4c#i\
4D\	.	4Bni\
2E\	.	1c#i
2E\	2G/	.
=26	=26	=26
[0D	[0A	1d
.	.	2r
.	.	2d\
=27	=27	=27
1D]	0A]	2d\
.	.	2d\
2r	.	[1f
2D\	.	.
=28	=28	=28
2D\	1r	2f\]
2D\	.	2f\
[1F	2r	[1c
.	2A/	.
=29	=29	=29
2F\]	2A/	2c\]
2F\	2A/	2d\
[1C	[1c	2.e-i\
.	.	4d\
=30	=30	=30
2C/]	2c\]	2e-i\
2D\	2c\	2d\
2.E-i\	[1G	[1B-
4D\	.	.
=31	=31	=31
2E-i\	2G/]	2B-\]
2C/	2A/	2c\
[1BB-	2.B-\	[1d
.	4A/	.
=32	=32	=32
2BB-/]	2B-\	2d\]
2C/	2A/	2e\
1D	2F/	1f
.	2G/	.
=33	=33	=33
2r	[0A	2e\
4D\	.	1a
4E\	.	.
4F\	.	.
4G\	.	.
4A\	.	4g\
4B-\	.	4f\
=34	=34	=34
4c\	0A]	2e\
4A\	.	.
1d	.	2d\
.	.	1e
2c#i\	.	.
=35	=35	=35
0d	0r	2d\
.	.	4G/
.	.	4A/
.	.	4B-\
.	.	4c\
.	.	4d\
.	.	4e\
=36	=36	=36
2r	0r	4f\
.	.	4g\
2D\	.	4a\
.	.	4g\
2D\	.	4f\
.	.	4e\
2D\	.	[2f\
=37	=37	=37
1.F	0r	2f\]
.	.	4e\
.	.	4d\
.	.	2c\
2F\	.	[2d\
=38	=38	=38
1G	0r	4d\]
.	.	4c\
.	.	4B-\
.	.	4A/
2G\	.	2B-\
2G\	.	[2d\
=39	=39	=39
1F	1A	4d\]
.	.	4c\
.	.	1f
1D	2A/	.
.	2A/	4e\
.	.	4d\
=40	=40	=40
1E-i	1.c	2g\
.	.	2.G/
1E-i	.	.
.	.	4F/
.	2c\	4G/
.	.	4A/
=41	=41	=41
2D\	1.d	4B-\
.	.	4c\
4BB-/	.	4d\
4C/	.	4e\
4D\	.	4f\
4E\	.	4g\
2F\	2c\	[2a\
=42	=42	=42
2G\	2B-\	4a\]
.	.	4d\
2E\	4A/	1g
.	4G/	.
1D	2A/	.
.	2A/	2f#i\
=43	=43	=43
2r	0G	1g
2E\	.	.
2E\	.	2r
2E\	.	[2g\
=44	=44	=44
1.G	0r	2g\]
.	.	4f\
.	.	4e\
.	.	2d\
2G\	.	[2e\
=45	=45	=45
1.A	2r	2e\]
.	2A/	2d\
.	2A/	2c\
2G\	2A/	2B-\
=46	=46	=46
2F\	1.c	2A/
4E\	.	4G/
4D\	.	4F/
2E\	.	1G
2E\	2c\	.
=47	=47	=47
[0D	1.d	2A/
.	.	2.B-\
.	.	4A/
.	2c\	[2A/
=48	=48	=48
0D]	2B-\	4A/]
.	.	4G/
.	4A/	1g
.	4G/	.
.	2A/	.
.	2A/	2f#i\
=49	=49	=49
0Gl	0Gl	0gl
==	==	==
*-	*-	*-
!!!RDF**kern: l=long note in original notation
!!!RDF**kern: i=editorial accidental
!!!RDF**kern: V=start of tuplet marker
!!!RDF**kern: Z=end of tuplet marker
!!!ENC:	Chris Gage 06-07-2012
!!!END:	2012/06/07/
!!!EED:	Jesse Rodin
!!!EEV:	2012/06/21/
!!attribution-level@Jos: 4 (questionable)
!!!ONB:	Translated from MusicXML and edited on 2012/06/21/ by Craig Sapp
!!muse2ps: C^@{COA}?\n@{SCT}^i2I150v85,85,150Q16
